flaticon/gastronomy/ice-cream-12.svg

<svg xmlns="http://www.w3.org/2000/svg" width="32" height="32" viewBox="0 0 24 24">
    <path d="M 10.796875 2.054688 C 10.59375 1.921875 10.328125 1.976562 10.195312 2.175781 L 9.40625 3.367188 C 9.277344 3.566406 9.332031 3.835938 9.53125 3.964844 C 9.601562 4.015625 9.6875 4.039062 9.769531 4.039062 C 9.910156 4.039062 10.046875 3.96875 10.128906 3.84375 L 10.917969 2.652344 C 11.050781 2.453125 10.996094 2.183594 10.796875 2.054688 Z M 14.878906 4.542969 C 14.710938 4.371094 14.4375 4.371094 14.269531 4.542969 C 14.097656 4.710938 14.097656 4.984375 14.269531 5.152344 L 15.476562 6.363281 C 15.5625 6.449219 15.671875 6.488281 15.78125 6.488281 C 15.894531 6.488281 16.003906 6.449219 16.089844 6.363281 C 16.257812 6.195312 16.257812 5.921875 16.089844 5.75 Z M 12.449219 5.21875 L 11.253906 5.605469 C 11.027344 5.679688 10.902344 5.921875 10.976562 6.152344 C 11.035156 6.332031 11.207031 6.449219 11.386719 6.449219 C 11.433594 6.449219 11.476562 6.441406 11.523438 6.429688 L 12.71875 6.039062 C 12.945312 5.964844 13.070312 5.722656 12.996094 5.496094 C 12.921875 5.269531 12.679688 5.144531 12.449219 5.21875 Z M 9.980469 4.816406 L 9.175781 4.410156 C 8.960938 4.300781 8.703125 4.386719 8.59375 4.601562 C 8.488281 4.8125 8.570312 5.074219 8.785156 5.183594 L 9.585938 5.589844 C 9.652344 5.621094 9.71875 5.636719 9.78125 5.636719 C 9.941406 5.636719 10.09375 5.550781 10.167969 5.398438 C 10.277344 5.183594 10.191406 4.925781 9.980469 4.816406 Z M 12.945312 2.636719 C 12.835938 2.421875 12.574219 2.335938 12.363281 2.445312 C 12.148438 2.554688 12.0625 2.8125 12.171875 3.027344 L 12.578125 3.832031 C 12.65625 3.980469 12.808594 4.066406 12.964844 4.066406 C 13.03125 4.066406 13.097656 4.050781 13.160156 4.019531 C 13.375 3.914062 13.457031 3.652344 13.351562 3.4375 Z M 12.945312 2.636719"/>
    <path d="M 17.894531 2.722656 C 17.011719 1.480469 15.273438 0 12 0 C 6.066406 0 4.769531 4.988281 4.769531 6.910156 C 4.769531 8.488281 5.554688 9.722656 6.5625 9.722656 C 6.707031 9.722656 6.902344 9.703125 7.109375 9.644531 L 11.820312 23.703125 C 11.878906 23.882812 12.046875 24 12.230469 24 C 12.417969 24 12.582031 23.882812 12.640625 23.703125 L 17.328125 9.71875 C 17.367188 9.71875 17.40625 9.722656 17.4375 9.722656 C 18.445312 9.722656 19.230469 8.488281 19.230469 6.910156 C 19.230469 5.792969 18.878906 4.109375 17.894531 2.722656 Z M 16.496094 9.476562 L 12.230469 22.203125 L 11.160156 19.003906 L 11.46875 18.695312 L 10.855469 18.085938 L 10.851562 18.089844 L 10.230469 16.234375 L 10.246094 16.25 L 10.855469 15.636719 L 10.246094 15.023438 L 9.929688 15.339844 L 8.703125 11.671875 L 9.019531 11.355469 L 8.410156 10.742188 L 8.394531 10.757812 L 7.867188 9.171875 C 7.882812 9.152344 7.902344 9.132812 7.921875 9.109375 C 7.996094 9.203125 8.074219 9.277344 8.15625 9.34375 C 8.171875 9.359375 8.191406 9.375 8.210938 9.390625 C 8.292969 9.449219 8.378906 9.503906 8.460938 9.542969 C 8.492188 9.558594 8.527344 9.570312 8.558594 9.585938 C 8.652344 9.621094 8.742188 9.652344 8.828125 9.671875 C 8.855469 9.675781 8.882812 9.683594 8.910156 9.6875 C 9.050781 9.710938 9.179688 9.722656 9.28125 9.722656 C 9.382812 9.722656 9.511719 9.710938 9.652344 9.6875 C 9.679688 9.683594 9.707031 9.675781 9.734375 9.671875 C 9.820312 9.652344 9.910156 9.621094 10 9.585938 C 10.035156 9.574219 10.070312 9.558594 10.101562 9.542969 C 10.1875 9.503906 10.265625 9.453125 10.34375 9.394531 C 10.367188 9.378906 10.390625 9.359375 10.410156 9.34375 C 10.492188 9.277344 10.570312 9.203125 10.640625 9.109375 C 10.710938 9.203125 10.789062 9.273438 10.871094 9.34375 C 10.890625 9.359375 10.914062 9.378906 10.9375 9.394531 C 11.015625 9.453125 11.097656 9.503906 11.179688 9.542969 C 11.210938 9.558594 11.246094 9.574219 11.285156 9.585938 C 11.371094 9.621094 11.460938 9.652344 11.546875 9.671875 C 11.574219 9.675781 11.601562 9.683594 11.632812 9.6875 C 11.722656 9.703125 11.804688 9.714844 11.882812 9.71875 L 11.46875 10.128906 L 12.082031 10.742188 L 12.691406 10.128906 L 12.265625 9.703125 C 12.300781 9.699219 12.335938 9.691406 12.371094 9.6875 C 12.398438 9.683594 12.425781 9.675781 12.453125 9.671875 C 12.539062 9.652344 12.628906 9.621094 12.71875 9.585938 C 12.753906 9.570312 12.789062 9.558594 12.824219 9.542969 C 12.90625 9.503906 12.984375 9.453125 13.066406 9.394531 C 13.085938 9.375 13.109375 9.359375 13.128906 9.34375 C 13.210938 9.273438 13.289062 9.203125 13.359375 9.109375 C 13.433594 9.203125 13.511719 9.277344 13.59375 9.34375 C 13.613281 9.359375 13.632812 9.375 13.652344 9.390625 C 13.734375 9.449219 13.816406 9.503906 13.898438 9.542969 C 13.933594 9.558594 13.964844 9.570312 14 9.585938 C 14.089844 9.621094 14.179688 9.652344 14.265625 9.671875 C 14.292969 9.675781 14.320312 9.679688 14.347656 9.6875 C 14.488281 9.710938 14.617188 9.722656 14.71875 9.722656 C 14.820312 9.722656 14.949219 9.710938 15.089844 9.6875 C 15.117188 9.679688 15.148438 9.675781 15.171875 9.671875 C 15.257812 9.652344 15.347656 9.621094 15.4375 9.585938 C 15.472656 9.570312 15.507812 9.558594 15.542969 9.542969 C 15.625 9.503906 15.707031 9.449219 15.785156 9.394531 C 15.808594 9.375 15.828125 9.359375 15.851562 9.339844 C 15.929688 9.273438 16.007812 9.203125 16.078125 9.109375 C 16.203125 9.265625 16.339844 9.378906 16.484375 9.46875 C 16.488281 9.46875 16.492188 9.472656 16.496094 9.476562 Z M 17.4375 8.855469 C 17.371094 8.855469 17.28125 8.855469 17.183594 8.835938 C 17.167969 8.832031 17.15625 8.820312 17.136719 8.816406 C 16.945312 8.765625 16.675781 8.636719 16.566406 8.089844 C 16.5625 8.078125 16.558594 8.070312 16.554688 8.058594 C 16.527344 7.917969 16.511719 7.753906 16.511719 7.558594 C 16.511719 7.320312 16.316406 7.125 16.078125 7.125 C 15.839844 7.125 15.648438 7.320312 15.648438 7.558594 C 15.648438 7.753906 15.628906 7.917969 15.605469 8.058594 C 15.601562 8.070312 15.59375 8.078125 15.59375 8.089844 C 15.484375 8.625 15.222656 8.855469 14.71875 8.855469 C 14.214844 8.855469 13.957031 8.625 13.847656 8.089844 C 13.84375 8.078125 13.835938 8.070312 13.835938 8.058594 C 13.808594 7.917969 13.792969 7.753906 13.792969 7.558594 C 13.792969 7.320312 13.597656 7.125 13.359375 7.125 C 13.121094 7.125 12.925781 7.320312 12.925781 7.558594 C 12.925781 7.753906 12.910156 7.917969 12.882812 8.058594 C 12.882812 8.070312 12.875 8.078125 12.871094 8.089844 C 12.765625 8.625 12.503906 8.855469 12 8.855469 C 11.496094 8.855469 11.234375 8.625 11.125 8.089844 C 11.125 8.078125 11.117188 8.070312 11.113281 8.058594 C 11.089844 7.917969 11.074219 7.753906 11.074219 7.558594 C 11.074219 7.320312 10.878906 7.125 10.640625 7.125 C 10.402344 7.125 10.207031 7.320312 10.207031 7.558594 C 10.207031 7.753906 10.191406 7.917969 10.164062 8.058594 C 10.160156 8.070312 10.15625 8.078125 10.152344 8.089844 C 10.042969 8.625 9.78125 8.855469 9.28125 8.855469 C 8.785156 8.855469 8.527344 8.636719 8.414062 8.121094 C 8.410156 8.109375 8.40625 8.101562 8.402344 8.09375 C 8.371094 7.945312 8.351562 7.769531 8.351562 7.558594 C 8.351562 7.320312 8.160156 7.125 7.917969 7.125 C 7.679688 7.125 7.488281 7.320312 7.488281 7.558594 C 7.488281 7.792969 7.464844 7.984375 7.429688 8.144531 C 7.425781 8.152344 7.417969 8.160156 7.417969 8.167969 C 7.355469 8.40625 7.257812 8.578125 7.125 8.6875 C 7.117188 8.691406 7.113281 8.703125 7.109375 8.707031 C 6.914062 8.855469 6.695312 8.855469 6.558594 8.855469 C 6.121094 8.855469 5.632812 8.023438 5.632812 6.910156 C 5.632812 5.226562 6.777344 0.867188 12 0.867188 C 18.292969 0.867188 18.367188 6.664062 18.367188 6.910156 C 18.367188 8.023438 17.878906 8.855469 17.4375 8.855469 Z M 17.4375 8.855469"/>
    <path d="M 15.140625 11.355469 L 14.527344 10.742188 L 15.140625 10.128906 L 15.75 10.742188 Z M 13.304688 10.742188 L 13.914062 11.355469 L 13.304688 11.964844 L 12.691406 11.355469 Z M 14.527344 13.191406 L 13.917969 12.578125 L 14.527344 11.964844 L 15.140625 12.578125 Z M 10.246094 10.128906 L 10.855469 10.742188 L 10.246094 11.351562 L 9.632812 10.742188 Z M 12.078125 11.96875 L 11.46875 12.578125 L 10.855469 11.96875 L 11.46875 11.355469 Z M 13.304688 13.191406 L 12.691406 13.800781 L 12.082031 13.191406 L 12.691406 12.578125 Z M 13.917969 15.023438 L 13.304688 14.414062 L 13.917969 13.800781 L 14.527344 14.414062 Z M 9.019531 12.578125 L 9.632812 11.96875 L 10.242188 12.578125 L 9.632812 13.191406 Z M 10.855469 13.191406 L 11.46875 13.800781 L 10.855469 14.414062 L 10.242188 13.800781 Z M 12.082031 15.636719 L 11.46875 15.027344 L 12.082031 14.414062 L 12.691406 15.027344 Z M 13.304688 16.863281 L 12.691406 16.25 L 13.304688 15.636719 L 13.914062 16.25 Z M 11.46875 16.25 L 12.078125 16.859375 L 11.46875 17.472656 L 10.855469 16.859375 Z M 12.691406 18.695312 L 12.082031 18.085938 L 12.691406 17.472656 L 13.304688 18.085938 Z M 12.082031 20.53125 L 11.46875 19.921875 L 12.082031 19.308594 L 12.691406 19.921875 Z M 12.082031 20.53125"/>
</svg>

<svg xmlns="http://www.w3.org/2000/svg" width="32" height="32" viewBox="0 0 24 24">
    <path d="M10.797 2.055a.433.433 0 0 0-.602.12l-.789 1.192a.433.433 0 0 0 .125.598.41.41 0 0 0 .239.074.43.43 0 0 0 .359-.195l.789-1.192a.429.429 0 0 0-.121-.597zm4.082 2.488a.425.425 0 0 0-.61 0 .425.425 0 0 0 0 .61l1.208 1.21a.425.425 0 0 0 .304.125c.114 0 .223-.039.309-.125a.436.436 0 0 0 0-.613zm-2.43.676l-1.195.386a.433.433 0 1 0 .27.825l1.195-.39a.43.43 0 1 0-.27-.821zM9.98 4.816l-.804-.406a.43.43 0 0 0-.582.192.435.435 0 0 0 .191.582l.8.406a.461.461 0 0 0 .196.047c.16 0 .313-.086.387-.239a.433.433 0 0 0-.188-.582zm2.965-2.18a.432.432 0 0 0-.582-.19.43.43 0 0 0-.191.581l.406.805a.438.438 0 0 0 .582.188.433.433 0 0 0 .192-.582zm0 0"/>
    <path d="M17.895 2.723C17.012 1.48 15.273 0 12 0 6.066 0 4.77 4.988 4.77 6.91c0 1.578.785 2.813 1.793 2.813.144 0 .34-.02.546-.078l4.711 14.058a.431.431 0 0 0 .82 0L17.329 9.72c.04 0 .078.004.11.004 1.007 0 1.792-1.235 1.792-2.813 0-1.117-.351-2.8-1.335-4.187zm-1.399 6.754L12.23 22.203l-1.07-3.2.309-.308-.614-.61-.003.005-.622-1.856.016.016.61-.613-.61-.614-.316.317-1.227-3.668.317-.317-.61-.613-.015.016-.528-1.586c.016-.02.035-.04.055-.063.074.094.152.168.234.235a.68.68 0 0 0 .055.047c.082.058.168.113.25.152.031.016.066.027.098.043.093.035.183.066.27.086.026.004.054.012.081.015.14.024.27.036.371.036.102 0 .23-.012.371-.036.028-.003.055-.011.082-.015a1.903 1.903 0 0 0 .368-.129 1.3 1.3 0 0 0 .242-.148c.023-.016.047-.036.066-.051.082-.067.16-.14.23-.235.07.094.15.164.231.235.02.015.043.035.066.05.079.06.16.11.243.149a.659.659 0 0 0 .105.043c.086.035.176.066.262.086.027.004.055.012.086.015.09.016.172.028.25.032l-.414.41.613.613.61-.613-.426-.426c.035-.004.07-.012.105-.015.027-.004.055-.012.082-.016.086-.02.176-.05.266-.086.035-.016.07-.027.105-.043.082-.04.16-.09.242-.148.02-.02.043-.036.063-.051.082-.07.16-.14.23-.235.075.094.153.168.235.235l.058.047c.082.058.164.113.246.152.036.016.067.027.102.043.09.035.18.066.266.086a2.345 2.345 0 0 0 .453.05c.101 0 .23-.011.37-.034.028-.008.06-.012.083-.016.086-.02.176-.05.265-.086.036-.016.07-.027.106-.043.082-.04.164-.094.242-.148l.067-.055a1.41 1.41 0 0 0 .226-.23 1.574 1.574 0 0 0 .418.367zm.942-.622c-.067 0-.157 0-.254-.02-.016-.003-.028-.015-.047-.019-.192-.05-.461-.18-.57-.726l-.012-.031a2.62 2.62 0 0 1-.043-.5.432.432 0 0 0-.863 0c0 .195-.02.359-.044.5-.003.011-.011.02-.011.03-.11.536-.371.766-.875.766s-.762-.23-.871-.765c-.004-.012-.012-.02-.012-.031a2.62 2.62 0 0 1-.043-.5.435.435 0 0 0-.434-.434.435.435 0 0 0-.433.434c0 .195-.016.359-.043.5 0 .011-.008.02-.012.03-.105.536-.367.766-.871.766s-.766-.23-.875-.765c0-.012-.008-.02-.012-.031a3.021 3.021 0 0 1-.039-.5.435.435 0 0 0-.433-.434.435.435 0 0 0-.434.434c0 .195-.016.359-.043.5l-.012.03c-.109.536-.37.766-.87.766-.497 0-.755-.218-.868-.734a.19.19 0 0 0-.012-.027 2.592 2.592 0 0 1-.05-.535.433.433 0 1 0-.864 0c0 .234-.023.425-.058.586-.004.007-.012.015-.012.023-.063.238-.16.41-.293.52-.008.003-.012.015-.016.019-.195.148-.414.148-.55.148-.438 0-.926-.832-.926-1.945C5.633 5.227 6.777.867 12 .867c6.293 0 6.367 5.797 6.367 6.043 0 1.113-.488 1.945-.93 1.945zm0 0"/>
    <path d="M15.14 11.355l-.613-.613.614-.613.609.613zm-1.835-.613l.61.613-.61.61-.614-.61zm1.222 2.45l-.609-.614.61-.613.613.613zm-4.28-3.063l.608.613-.609.61-.613-.61zm1.831 1.84l-.61.61-.613-.61.614-.614zm1.227 1.222l-.614.61-.609-.61.61-.613zm.613 1.832l-.613-.609.613-.613.61.613zM9.02 12.578l.613-.61.61.61-.61.613zm1.835.613l.614.61-.614.613-.613-.613zm1.227 2.446l-.613-.61.613-.613.61.613zm1.223 1.226l-.614-.613.614-.613.61.613zm-1.836-.613l.61.61-.61.613-.614-.614zm1.222 2.445l-.609-.61.61-.612.613.613zm-.609 1.836l-.613-.61.613-.612.61.613zm0 0"/>
</svg>
